packages/symbols/svgs/outline/pen-outline.svg

<svg width="24" height="24" viewBox="0 0 24 24" fill="none" xmlns="http://www.w3.org/2000/svg">
<path fill-rule="evenodd" clip-rule="evenodd" d="M13.2929 5.29289C13.6834 4.90237 14.3166 4.90237 14.7071 5.29289L18.7071 9.29289C19.0976 9.68342 19.0976 10.3166 18.7071 10.7071C18.3166 11.0976 17.6834 11.0976 17.2929 10.7071L13.2929 6.70711C12.9024 6.31658 12.9024 5.68342 13.2929 5.29289Z" fill="black"/>
<path fill-rule="evenodd" clip-rule="evenodd" d="M17.2929 1.29289C17.6834 0.902369 18.3166 0.902369 18.7071 1.29289L22.7071 5.29289C23.0976 5.68342 23.0976 6.31658 22.7071 6.70711L7.70712 21.7071C7.56752 21.8467 7.38972 21.9419 7.19613 21.9806L2.19613 22.9806C1.86827 23.0462 1.52933 22.9435 1.29291 22.7071C1.05649 22.4707 0.953864 22.1317 1.01944 21.8039L2.01944 16.8039C2.05815 16.6103 2.15331 16.4325 2.29291 16.2929L17.2929 1.29289ZM3.92122 17.493L3.27477 20.7252L6.507 20.0788L20.5858 6L18 3.41421L3.92122 17.493Z" fill="black"/>
</svg>

<svg width="24" height="24" viewBox="0 0 24 24" xmlns="http://www.w3.org/2000/svg"><path fill-rule="evenodd" clip-rule="evenodd" d="M13.293 5.293a1 1 0 0 1 1.414 0l4 4a1 1 0 0 1-1.414 1.414l-4-4a1 1 0 0 1 0-1.414Z"/><path fill-rule="evenodd" clip-rule="evenodd" d="M17.293 1.293a1 1 0 0 1 1.414 0l4 4a1 1 0 0 1 0 1.414l-15 15a1 1 0 0 1-.51.274l-5 1a1 1 0 0 1-1.178-1.177l1-5a1 1 0 0 1 .274-.511l15-15ZM3.92 17.493l-.646 3.232 3.232-.646L20.586 6 18 3.414 3.921 17.493Z"/></svg>
